X: 1251
T: COVERT'S WALTZ
B: Oliver Ditson "The Boston Collection of Instrumental Music" 1910 p.152 #1
F: http://conquest.imslp.info/files/imglnks/usimg/8/8f/IMSLP175643-PMLP309456-bostoncollection00bost_bw.pdf
%: 2012 John Chambers <jc:trillian.mit.edu>
M: 3/4
L: 1/8
K: A
|:\
{f}e>^de>ag>f | e>^de>=dc>B | A>GA>cB>d | c>E A>Bc>d |\
e>^de>ag>f | e>^de>=dc>B | A>GA>cB>d | AcA2z2 :|
|:\
(EGBd).B.G | (Ac).e.ga2 | (EG).B.d(BG) | (Ac).e.ga2 |\
(fe).A.d.f2 | ecAce2 |1 (fedcB)A | e4z2 :|2 (3fed (3dcB (3AGF | E4z2 "^D.C.":|

%%sep 1 1 500
%%sep 1 1 500
